**kern
*staff1
*I"Piano
=1- 	=1-
*clefG2
*k[]
*C:
*M4/4
1r
=2 	=2
1r
=3 	=3
1r
=4 	=4
1r
=5 	=5
1r
=6 	=6
1r
=7 	=7
1r
=8 	=8
1r
=9|| 	=9||
*k[b-e-a-d-g-]
8r
8d-/L
8f/
8cc/J
8b-/L
8a-/
8gn/
8f/J
=10 	=10
!!linebreak:original
8en/L
8ee-/J
2b-\
4r
=11 	=11
8r
8c-/L
8e-/
8b-/J
8a-/L
8g-/
8f/
8e-/J
=12 	=12
8dn/L
8dd-/J
2a-/
4r
=13 	=13
8r
8An/L
8d-/
8a-/J
8g-/L
8f-/
8e-/
8d-/J
=14 	=14
!!linebreak:original
8c/L
8cc-/J
2g-/
8en/L
[8f/J
=15 	=15
8f/L]
8c/J
12d-/L
12f/
12a-/J
8ee-\
4b-\
8r
=16 	=16
1r
=17 	=17
8r
8d-/L
8f/
8cc/J
8b-/L
8a-/
8gn/
8f/J
=18 	=18
8en/L
8ee-/J
2b-\
4r
=19 	=19
!!linebreak:original
8r
8c-/L
8e-/
8b-/J
8a-/L
8g-/
8f/
8e-/J
=20 	=20
8dn/L
8dd-/J
2a-/
4r
=21 	=21
8r
8An/L
8d-/
8a-/J
8g-/L
8f-/
8e-/
8d-/J
=22 	=22
8c/L
8cc-/J
2g-/
8en/L
(8f/J
=23 	=23
!!linebreak:original
8f/L)
8c/J
12d-/L
12f/
12a-/J
8ee-\
4b-\
8r
=24 	=24
1r
=25 	=25
8dd-\L
8dd-\J
8dd-\
16r
[16dd-\
16dd-\LK]
8dd-\J
16r
4r
=26 	=26
8r
8d-/L
8dn/
8f/J
8an\L
8een\
8ddn\
8cc\J
=27 	=27
!!linebreak:original
8dd-\L
8b-\J
4r
4r
24gn/LL
24a-/
24g/J
8f/J
=28 	=28
8g-/L
8e-/J
4r
2r
=29 	=29
8ee-\L
8ee-\J
8ee-\
16r
[16ee-\
16ee-\LK]
8ee-\J
16r
4r
=30 	=30
!!linebreak:original
8r
8e-/L
8en/
8gn/J
8bn\L
8ff#\
8een\
8ddn\J
=31 	=31
8ee-\L
8cc\J
4r
4r
24an/LL
24b-/
24a/J
8gn/J
=32 	=32
8a-/L
8dn/J
4r
2r
=33 	=33
!!linebreak:original
8r
8d-/L
8f/
8cc/J
8b-/L
8a-/
8gn/
8f/J
=34 	=34
8en/L
8ee-/J
2b-\
4r
=35 	=35
8r
8c-/L
8e-/
8b-/J
8a-/L
8g-/
8f/
8e-/J
=36 	=36
8dn/L
8dd-/J
2a-/
4r
=37 	=37
!!pagebreak:original
8r
8An/L
8d-/
8a-/J
8g-/L
8f-/
8e-/
8d-/J
=38 	=38
8c/L
8cc-/J
2g-/
8en/L
[8f/J
=39 	=39
8f/L]
8c/J
12d-/L
12f/
12a-/J
8ee-\
4b-\
8r
=40 	=40
1r
=41|| 	=41||
!!linebreak:original
8r
8c/L
8d-/
8f/J
8cc/L
8b-/
8g-/
8gn/J
=42 	=42
8ee-/L
8dd-/
8a-/
8en/J
4g-/
4r
=43 	=43
8r
8B-/L
8c/
8e-/J
8b-/L
8a-/
8en/
8f/J
=44 	=44
!!linebreak:original
8dd-/L
8cc-/
8g-/
8dn/J
4en/
4r
=45 	=45
8r
8A-/L
8An/
8d-/J
8a-/L
8g-/
8dn/
8e-/J
=46 	=46
8bn/L
8an/
8en/
8c/J
4dn/
8c/L
[8e-/J
=47 	=47
!!linebreak:original
8e-/L]
8c/J
12d-/L
12f/
12a-/J
8ee-\
4b-\
8r
=48 	=48
2r
4r
8r
[8f/
=49 	=49
8f/]
4ff\
8dd-\
8cc/L
8b-/
8a-/
8gn/J
=50 	=50
8f/L
8e-/
8en/
8a-/J
8ee-\
4b-\
8r
=51 	=51
!!linebreak:original
8cc-/L
8e-/
8a-/
8cc-/J
8b-/L
8a-/
8g-/
8f/J
=52 	=52
8e-/L
8d-/
8dn/
8g-/J
8dd-\
4a-/
8r
=53 	=53
8r
8An/L
8d-/
8a-/J
8g-/L
8en/
8e-/
8d-/J
=54 	=54
!!linebreak:original
8bn/L
8an/
8en/
8c/J
4dn/
8r
[8e-/
=55 	=55
8e-/L]
8B-/
8f/
[8b-/J
8b-\]
4ee-\
8r
=56 	=56
1r
=57 	=57
4a-/
8b-\L
8cc-\J
8dd-\
4ee-\
[8ddn\
=58 	=58
!!linebreak:original
8dd\]
4een\
8r
4r
8ddn\L
[8ff\J
=59 	=59
8ff\L]
8dd-\
8b-\
8f\J
8a-/L
8f/
8g-/
[8dd-/J
=60 	=60
8dd-\L]
8dd-\J
4b-\
4r
8r
[8ee-\
=61 	=61
8ee-\]
4dd-\
8cc\
8b-\
4a-/
[8ff#\
=62 	=62
!!linebreak:original
8ff#\]
4een\
8r
4r
8r
[8aa-\
=63 	=63
4aa-\]
8gg-\L
8ff\J
8ee-\
4dd-\
[8bbn\
=64 	=64
8bb\]
4aan\
8r
2r
=65 	=65
4bb-\
8ggn\L
8bb-\J
8aan\
4gg\
[8ff\
=66 	=66
!!pagebreak:original
8ff\L]
8ee-\
8ee-\
8gg-\J
8bb-\L
8ddd-\
8ccc\
8bb-\J
=67 	=67
8aa-\L
8ff\J
4r
4r
8r
[8ee-\
=68 	=68
8ee-\L]
8dd-\J
12ddn\L
12ff\
12aa-\J
8bbn\
4bb-\
8r
=69 	=69
!!linebreak:original
8r
8an\L
8ee-\
8ff\J
8gg-\L
8aa-\
8aan\
8ggn\J
=70 	=70
8aa-\L
8gg-\J
24een\LL
24gg-\
24ee\J
8cc\J
4ddn\
8cc\L
[8ee-\J
=71 	=71
8ee-\L]
8dd-\
8f\
8a-\J
8cc\
4b-\
8r
=72 	=72
1r
=73|| 	=73||
!!linebreak:original
8r
8d-/L
8f/
8cc/J
8b-/L
8a-/
8gn/
8f/J
=74 	=74
8en/L
8ee-/J
2b-\
4r
=75 	=75
8r
8Bn/L
8e-/
8b-/J
8a-/L
8g-/
8f/
8e-/J
=76 	=76
8dn/L
8dd-/J
2a-/
4r
=77 	=77
!!linebreak:original
8r
8An/L
8d-/
8a-/J
8g-/L
8en/
8e-/
8d-/J
=78 	=78
8c/L
8bn/J
2g-/
8en/L
[8f/J
=79 	=79
8f/L]
8c/J
12d-/L
12f/
12a-/J
8ee-\
4b-\
8r
=80 	=80
1r
=81 	=81
1r
=82 	=82
1r
== 	==
*-
